X: 35678
T: Sailor's Wife, The
R: jig
M: 6/8
K: Ddorian
A|:DEF E2 D|d2 e f2 g|agf edc|A/B/cA GEC|
DEF E2 D|d2 e f2 g|agf ed^c|1 d3 d2A:|2 d3 d2e||
|:fga fga|fga agf|ecg ecg|ecg gfe|
f2 a agf|e2 g g^fg|afd gec|1 d3 d2e:|2 d3 d2A||

